icons/stoplight.svg

<?xml version="1.0" encoding="UTF-8" standalone="no"?>
<svg width="256px" height="256px" viewBox="0 0 256 256" version="1.1" xmlns="http://www.w3.org/2000/svg" xmlns:xlink="http://www.w3.org/1999/xlink" preserveAspectRatio="xMidYMid">
	<g>
		<path d="M250.422,128 C250.422,195.612 195.612,250.422 128,250.422 C60.388,250.422 5.578,195.612 5.578,128 C5.578,60.388 60.388,5.578 128,5.578 C195.612,5.578 250.422,60.388 250.422,128" fill="#FFFFFF"></path>
		<path d="M127.7549,53.5404 C130.2519,53.5404 132.2829,55.5714 132.2829,58.0684 C132.2829,60.5654 130.2519,62.5964 127.7549,62.5964 C125.2579,62.5964 123.2269,60.5654 123.2269,58.0684 C123.2269,55.5714 125.2579,53.5404 127.7549,53.5404 M177.6259,74.1254 L132.9559,74.1254 L132.9559,69.2524 C137.1669,67.2864 140.0929,63.0144 140.0929,58.0684 C140.0929,51.2654 134.5579,45.7314 127.7549,45.7314 C120.9519,45.7314 115.4169,51.2654 115.4169,58.0684 C115.4169,62.9914 118.3169,67.2494 122.4969,69.2264 L122.4969,74.1254 L77.7799,74.1254 C75.3159,74.1254 73.3179,76.1234 73.3179,78.5874 L73.3179,146.3604 C73.3179,148.8254 75.3159,150.8234 77.7799,150.8234 L158.1029,150.8234 L158.1029,190.1474 L97.1169,190.1474 L97.1169,179.2704 C97.1169,176.8064 95.1199,174.8084 92.6549,174.8084 C90.1899,174.8084 88.1929,176.8064 88.1929,179.2704 L88.1929,194.6104 C88.1929,197.0744 90.1899,199.0724 92.6549,199.0724 L109.1099,199.0724 L109.1099,204.9294 C109.1099,205.5434 109.6119,206.0454 110.2259,206.0454 L121.6609,206.0454 C122.2739,206.0454 122.7759,205.5434 122.7759,204.9294 L122.7759,199.0724 L132.6419,199.0724 L132.6419,204.9294 C132.6419,205.5434 133.1439,206.0454 133.7579,206.0454 L145.1929,206.0454 C145.8059,206.0454 146.3079,205.5434 146.3079,204.9294 L146.3079,199.0724 L162.5659,199.0724 C165.0299,199.0724 167.0279,197.0744 167.0279,194.6104 L167.0279,146.3604 C167.0279,143.8964 165.0299,141.8984 162.5659,141.8984 L82.2429,141.8984 L82.2429,83.0504 L173.1639,83.0504 L173.1639,127.0234 C173.1639,129.4884 175.1619,131.4864 177.6259,131.4864 C180.0909,131.4864 182.0889,129.4884 182.0889,127.0234 L182.0889,78.5874 C182.0889,76.1234 180.0909,74.1254 177.6259,74.1254 Z M101.4671,101.6288 C100.8531,101.6288 100.3511,102.1308 100.3511,102.7448 L100.3511,111.9038 C100.3511,112.5178 100.8531,113.0198 101.4671,113.0198 L117.0351,113.0198 C117.6481,113.0198 118.1501,112.5178 118.1501,111.9038 L118.1501,102.7448 C118.1501,102.1308 117.6481,101.6288 117.0351,101.6288 L101.4671,101.6288 Z M138.3724,101.6288 C137.7584,101.6288 137.2564,102.1308 137.2564,102.7448 L137.2564,111.9038 C137.2564,112.5178 137.7584,113.0198 138.3724,113.0198 L153.9404,113.0198 C154.5534,113.0198 155.0554,112.5178 155.0554,111.9038 L155.0554,102.7448 C155.0554,102.1308 154.5534,101.6288 153.9404,101.6288 L138.3724,101.6288 Z" fill="#3880F0"></path>
		<path d="M128,11.156 C63.572,11.156 11.156,63.572 11.156,128 C11.156,192.428 63.572,244.844 128,244.844 C192.428,244.844 244.844,192.428 244.844,128 C244.844,63.572 192.428,11.156 128,11.156 M128,256 C93.81,256 61.666,242.686 37.49,218.51 C13.314,194.334 0,162.19 0,128 C0,93.81 13.314,61.666 37.49,37.49 C61.666,13.314 93.81,0 128,0 C162.19,0 194.334,13.314 218.51,37.49 C242.686,61.666 256,93.81 256,128 C256,162.19 242.686,194.334 218.51,218.51 C194.334,242.686 162.19,256 128,256" fill="#3880F0"></path>
	</g>
</svg>

<svg xmlns="http://www.w3.org/2000/svg" viewBox="0 0 256 256">
  <path fill="#fff" d="M250.422 128c0 67.612-54.81 122.422-122.422 122.422S5.578 195.612 5.578 128 60.388 5.578 128 5.578 250.422 60.388 250.422 128"/>
  <path fill="#3880f0" d="M127.755 53.54a4.533 4.533 0 0 1 4.528 4.528 4.533 4.533 0 0 1-4.528 4.528 4.533 4.533 0 0 1-4.528-4.528 4.533 4.533 0 0 1 4.528-4.528m49.87 20.585h-44.67v-4.873c4.212-1.966 7.138-6.238 7.138-11.184 0-6.803-5.535-12.337-12.338-12.337-6.803 0-12.338 5.534-12.338 12.337 0 4.923 2.9 9.181 7.08 11.158v4.9H77.78a4.462 4.462 0 0 0-4.462 4.461v67.773a4.463 4.463 0 0 0 4.462 4.463h80.323v39.324H97.117V179.27a4.462 4.462 0 1 0-8.924 0v15.34a4.462 4.462 0 0 0 4.462 4.462h16.455v5.857c0 .614.502 1.116 1.116 1.116h11.435c.613 0 1.115-.502 1.115-1.116v-5.857h9.866v5.857c0 .614.502 1.116 1.116 1.116h11.435c.613 0 1.115-.502 1.115-1.116v-5.857h16.258a4.462 4.462 0 0 0 4.462-4.462v-48.25a4.462 4.462 0 0 0-4.462-4.462H82.243V83.05h90.92v43.973a4.463 4.463 0 1 0 8.926 0V78.587a4.463 4.463 0 0 0-4.463-4.462zm-76.158 27.504c-.614 0-1.116.502-1.116 1.116v9.159c0 .614.502 1.116 1.116 1.116h15.568c.613 0 1.115-.502 1.115-1.116v-9.16c0-.613-.502-1.115-1.115-1.115zm36.905 0c-.614 0-1.116.502-1.116 1.116v9.159c0 .614.502 1.116 1.116 1.116h15.568c.613 0 1.115-.502 1.115-1.116v-9.16c0-.613-.502-1.115-1.115-1.115z"/>
  <path fill="#3880f0" d="M128 11.156C63.572 11.156 11.156 63.572 11.156 128S63.572 244.844 128 244.844 244.844 192.428 244.844 128 192.428 11.156 128 11.156M128 256c-34.19 0-66.334-13.314-90.51-37.49C13.314 194.334 0 162.19 0 128c0-34.19 13.314-66.334 37.49-90.51C61.666 13.314 93.81 0 128 0c34.19 0 66.334 13.314 90.51 37.49C242.686 61.666 256 93.81 256 128c0 34.19-13.314 66.334-37.49 90.51C194.334 242.686 162.19 256 128 256"/>
</svg>
